Square/Handelsbanken.svg

<?xml version="1.0" encoding="UTF-8"?>
<svg width="32px" height="32px" viewBox="0 0 32 32" version="1.1" xmlns="http://www.w3.org/2000/svg" xmlns:xlink="http://www.w3.org/1999/xlink">
    <!-- Generator: Sketch 52.3 (67297) - http://www.bohemiancoding.com/sketch -->
    <title>Square/Handelsbanken</title>
    <desc>Created with Sketch.</desc>
    <g id="Square/Handelsbanken" stroke="none" stroke-width="1" fill="none" fill-rule="evenodd">
        <path d="M32,11.6878096 C31.3024234,11.5663054 30.5716617,11.5246618 29.8791101,11.5246618 C26.9968677,11.5246618 24.0400846,12.513659 23.8413094,15.8020742 L27.3695716,15.8020742 C27.493806,14.4174786 28.3634481,13.8735297 29.7051814,13.8735297 C30.9475274,13.8735297 31.9910975,14.0960542 31.9910975,15.6042749 C31.9910975,17.0385732 29.9784973,16.9643984 27.8168162,17.2855698 C25.6302873,17.582269 23.4437591,18.2745668 23.4437591,21.1673839 C23.4437591,23.7882261 25.3818185,24.9997476 27.8168162,24.9997476 C29.3179647,24.9997476 30.8876644,24.6131981 32,23.5566265 L32,32 L0,32 L0,0 L32,0 L32,11.6878096 Z M6.2,7 L6.2,24.6535987 L10.1009656,24.6535987 L10.1009656,17.0383209 L17.2817241,17.0383209 L17.2817241,24.6535987 L21.1826894,24.6535987 L21.1826894,7 L17.2817241,7 L17.2817241,13.7746302 L10.1009656,13.7746302 L10.1009656,7 L6.2,7 Z M29.0589079,19.1399394 C30.1521724,18.9421402 31.3945184,18.917415 31.9908439,18.398192 L31.9908439,19.7086128 C31.9908439,20.4750861 31.8914567,22.6508795 29.1334487,22.6508795 C27.9904906,22.6508795 26.9717669,22.3292034 26.9717669,21.0187819 C26.9717669,19.7333379 27.9656442,19.3624639 29.0589079,19.1399394 Z" id="Combined-Shape" fill="#0066B3"></path>
    </g>
</svg>

<svg width="32" height="32" xmlns="http://www.w3.org/2000/svg"><path d="M32 11.688a12.512 12.512 0 0 0-2.12-.163c-2.883 0-5.84.989-6.039 4.277h3.529c.124-1.385.993-1.928 2.335-1.928 1.243 0 2.286.222 2.286 1.73 0 1.435-2.013 1.36-4.174 1.682-2.187.296-4.373.989-4.373 3.881 0 2.621 1.938 3.833 4.373 3.833 1.501 0 3.07-.387 4.183-1.443V32H0V0h32v11.688zM6.2 7v17.654h3.901v-7.616h7.18v7.616h3.902V7h-3.901v6.775H10.1V7H6.2zm22.859 12.14c1.093-.198 2.336-.223 2.932-.742v1.31c0 .767-.1 2.943-2.858 2.943-1.143 0-2.161-.322-2.161-1.632 0-1.286.994-1.657 2.087-1.88z" fill="#0066B3" fill-rule="evenodd"/></svg>
